X:1
T:Herzlich lieb hab ich dich
T:Johannes Zahn
T:Vor 1577
T:Herzlich lieb hab ich dich
T:CPDL - Creative Commons Attribution Non Commercial 3.0
T:CPDL - Creative Commons Attribution Non Commercial 3.0
T:CPDL - Creative Commons Attribution Non Commercial 3.0
C:Johannes Zahn
Z:CPDL - Creative Commons Attribution Non Commercial 3.0
%%score [ ( 1 2 ) ( 3 4 ) ]
L:1/8
M:4/4
K:Eb
V:1 treble-8 nm="Tenor"
V:2 treble-8 
V:3 bass nm="Bass"
V:4 bass 
V:1
 e4 d2 c2 B2 AG c2 c2 B4 | e4 d2 c2 B2 AG c2 c2 B2 | B2 c2 d2 (e2 g2) f2 (e4 d2) |1 e8 :|2 e4 || %5
w: 1.~Herz- lich lieb hab' ich _ dich, o Herr!|1.~Ich bitt', wollst sein von _ mir nicht fern|1.~mit dei- ner Güt' _ und Gna- *|de.||
w: Die gan- ze Welt nicht _ freu- et mich,|nach Himm'l und Er- den _ nicht frag' ich,|wenn ich dich nur _ kann ha- *||ben.|
w: 2.~Es ist ja, Herr, dein _ G‘schenk und Gab|2.~mein Leib und Seel, und _ was ich hab|2.~in die- sem ar- * men Le- *|ben;||
w: da- mit ich‘s brauch zum _ Lo- be dein,|zu Nutz und Dienst des _ Nächs- ten mein,|wollst mir dein Gna- * de ge- *||ben!|
w: 3.~Ach, Herr, lass dein lieb _ En- ge- lein|3.~am letz- ten End die _ See- le mein|3.~in A- bra- hams _ Schoß tra- *|gen,||
w: den Leib in seim Schlaf- * käm- mer- lein|gar sanft ohn ein- ge _ Qual und Pein|ruhn bis am jüngs- * ten Ta- *||ge.|
 z2 e2 e2 f2 e2 c2 e2 e2 d2 | d2 e2 f2 e2 c2 | e2 e2 d4 | e2 gg feed e2 | %9
w: 1.~Und wenn mir gleich mein Herz zer- bricht,|so bist du doch mein|Zu- ver- sicht,|mein Teil und mei- nes Her- zens Trost,|
w: 2.~Be- hüt mich, Herr, vor fal- scher Lehr‘,|des Sa- tans Mord und|Lü- gen wehr,|in al- lem Kreuz er- hal- te mich,|
w: 3.~Als- dann vom Tod er- we- cke mich,|dass mei- ne Au- gen|se- hen dich|in al- ler Freud, o Got- tes- sohn,|
w: ||||
w: ||||
w: ||||
 d2 e6 d2 c2 B2 B2 =A2 B4 | z4 g4 f4 e4 d2 | g2 a2 f2 e2 f2 e2 d2 e2 | z e e2 e2 f2 e2 e2 d2 e8 |] %13
w: der mich durch sein Blut hat er- löst.|1\-3.~Herr Je- su Christ,|mein Gott und Herr, mein Gott und Herr,|in Schan- den lass mich nim- mer- mehr.|
w: auf dass ich‘s trag ge- dul- dig- lich.||mein Herr und Gott, mein Herr und Gott,|tröst mir mein Seel in To- des- not.|
w: mein Hei- land und mein Gna- den- thron!||er- hö- re mich, er- hö- re mich,|ich will dich prei- sen e- wig- lich.|
w: ||||
w: ||||
w: ||||
V:2
 B4 B2 AG F3 G A2 A2 G4 | c4 B2 A2 F2 E2 E2 F2 G2 | G2 G2 B2 (B2 e2) c4 B4 |1 B8 :|2 B4 || %5
 x2 B2 B2 B2 B2 A2 G2 =A2 B2 | B2 B2 B2 c2 c2 | c2 B=A B4 | B2 ee BccB B2 | %9
 B2 B6 B2 G2 B2 G2 =A2 B4 | x4 e4 d4 c4 d2 | e2 e2 d2 c2 c2 G2 B2 B2 | x B c2 e2 c2 c2 c2 B2 B8 |] %13
V:3
 G,4 F,2 E,2 D,2 E,2 E,3 F, G,4 | G,4 G,2 E,2 D,2 E,2 C,2 C,2 D,2 | D,2 E,2 F,2 G,4 (A,3 G,) F,4 |1 %3
w: ||* * * * * * Gna-|
w: ||* * * * * * ha-|
 G,8 :|2 G,4 || z2 G,2 G,2 F,2 G,2 E,2 E,2 E,2 F,2 | F,2 G,2 F,2 G,2 A,2 | G,2 E,2 F,4 | %8
w: de.|||||
w: |ben.||||
 G,2 B,B, F,G,A,F, G,2 | F,2 G,6 F,2 E,2 F,2 G,2 F,2 D,4 | z4 B,4 B,6 =A,2 B,2 | %11
w: |||
w: |||
 B,2 C2 B,2 G,2 A,2 E,2 F,2 G,2 | z G, A,2 B,2 A,2 G,2 F,2 F,2 G,8 |] %13
w: ||
w: ||
V:4
 E,4 B,,2 C,2 D,2 E,2 A,,2 C,2 E,4 | C,4 G,,2 A,,2 B,,2 C,2 A,,2 A,,2 G,,2 | %2
 G,,2 C,2 B,,2 (E,2 C,2) A,,4 B,,4 |1 E,8 :|2 E,4 || x2 E,2 E,2 D,2 E,2 A,,2 C,2 C,2 B,,2 | %6
 B,,2 E,2 D,2 C,2 A,,2 | C,2 C,2 B,,4 | E,2 E,E, D,C,A,,B,, E,2 | %9
 B,,2 E,6 B,,2 C,2 D,2 E,2 F,2 B,,4 | x4 E,4 B,,4 C,4 B,,2 | E,2 A,,2 B,,2 C,2 A,,2 C,2 B,,2 E,2 | %12
 x E, A,2 G,2 F,2 C,2 A,,2 B,,2 E,8 |] %13

